data/sheikah/2.svg

<!-- Generated by IcoMoon.io -->
<svg version="1.1" xmlns="http://www.w3.org/2000/svg" width="1024" height="1024" viewBox="0 0 1024 1024">
<title></title>
<g id="icomoon-ignore">
</g>
<path d="M273 153.5l-119.5 119.5v179l119.5 119.5h478l119.5-119.5v-179l-119.5-119.5v298.5h-478v-298.5zM870.5 751l-119.5 119.5h-478l-119.5-119.5h717zM452.5 153.5h119.5v119.5h-119.5v-119.5z"></path>
</svg>

<svg xmlns="http://www.w3.org/2000/svg" width="1024" height="1024" viewBox="0 0 1024 1024">
  <title/>
  <path d="M273 153.5 153.5 273v179L273 571.5h478L870.5 452V273L751 153.5V452H273zM870.5 751 751 870.5H273L153.5 751zm-418-597.5H572V273H452.5z"/>
</svg>
